X: 4803
T: Boys Of The Lough, The
R: reel
M: 4/4
K: Dmajor
|AF F2 ADFA|dgfd B3d|AF F2 DF F2|dFFF EFGB|
AF F2 ADFA|defd B3d|AF F2 dBAF|G2 EG FD D2|
AF F2 DF F2|dB B2 GBdB|A2 ^GA defa|g2fg edBc|
dDFD dDFA|defd B3d|AF F2 DFAF|G2 EG FD D2|
faag fgef|dcBA ^GABd|AF F2 DF F2|dF F2 EFFE|
Daaf gefe|dcBA ^GABd|AF F2 dBAF|G2 EG FD D2|
faag fgef|dcBA ^GABd|AF F2 ABde|fdaf gefg|
afge fdec|dcBA ^GABd|AF F2 DFAF|E2 EF D2 dB|
AF F2 dDFA|defd B3z|dF F2 AF F2|G2 ED EFGB|
A3 F ADFA|defd efdB|A2 FA dBAF|G2 EG FD D2|
AF F2 A2 FA|defd efdB|AF F2 DF F2|dFAF EFGB|
AF F2 ADFA|defd efdB|A2 FA dBAF|G2 EG FD D2|
faag fgef|dcBA ^GABd|AF F2 DF F2|dF F2 EFFE|
Daaf gefe|dcBA ^GABd|AF F2 dBAF|G2 EG FD D2|
faag fgef|dcBA ^GABd|AF F2 ABde|fdaf gefg|
afge fdec|dcBA ^GABd|AF F2 DFAF|E2 EF D2 dB|

